X: 6473
T: Cat In The Couch Grass, The
R: reel
M: 4/4
K: Eminor
B2AB GBE2|B2AB GBE2|d2de fdec|dBc2 A2A2|
B2AB GBE2|B2AB GBE2|d2de fdga|fge2 e2e2:|
g2gf geag|aeba beag|aege aebe|aeg2 e2e2|
g2gf geag|aeba beag|aege aebe|c'eb2 e2e'2|

